X:12302
T:The Drops Of Brandy
R:Slip Jig
B:Tuneworks Tunebook (https://www.tuneworks.co.uk/)
G:Tuneworks
Z:Jon Warbrick <jon.warbrick@googlemail.com>
M:9/8
L:1/8
K:D
|: "D"A2 G FDF FDF | A2 G FDF "G"GFE | "D"A2 G FDF  FDF | "A"G2 F E2 F GFE :|
|: "D"DFA dAF dAE | DFA dAF "G"GFE | "D"DFA dAF dAF | "A"G2 F E2 F GFE :|